assets/icons/sale.svg

<svg width="20" height="20" viewBox="0 0 20 20" fill="none" xmlns="http://www.w3.org/2000/svg">
<path d="M14.4001 4.39954C14.7184 4.39954 15.0236 4.52596 15.2487 4.75101C15.4737 4.97605 15.6001 5.28128 15.6001 5.59954C15.6001 5.9178 15.4737 6.22303 15.2487 6.44808C15.0236 6.67312 14.7184 6.79955 14.4001 6.79955C14.0819 6.79955 13.7767 6.67312 13.5516 6.44808C13.3266 6.22303 13.2001 5.9178 13.2001 5.59954C13.2001 5.28128 13.3266 4.97605 13.5516 4.75101C13.7767 4.52596 14.0819 4.39954 14.4001 4.39954Z" stroke="currentColor" stroke-width="1.2" stroke-linecap="round" stroke-linejoin="round"/>
<path d="M2.61887 9.31484C1.81646 10.2108 1.79966 11.5628 2.53567 12.5149C3.96528 14.3707 5.62866 16.0341 7.4845 17.4637C8.4365 18.1997 9.78851 18.1829 10.6845 17.3805C13.1066 15.2139 15.3825 12.8894 17.4974 10.422C17.7109 10.1766 17.8423 9.87064 17.8734 9.54684C18.0046 8.11003 18.2758 3.9708 17.1518 2.8476C16.0277 1.72439 11.8893 1.99479 10.4525 2.12679C10.1287 2.15782 9.82271 2.28928 9.57731 2.5028C7.11 4.61738 4.78543 6.89304 2.61887 9.31484Z" stroke="currentColor" stroke-width="1.2"/>
<path d="M11.4302 10.2935C11.4478 9.97265 11.5374 9.38545 11.0494 8.93904C10.8632 8.77725 10.6464 8.65456 10.4118 8.57824C9.40624 8.22384 8.17183 9.40945 9.04543 10.4951C9.51504 11.0791 9.87744 11.2583 9.84224 11.9207C9.81824 12.3863 9.36063 12.8735 8.75743 13.0591C8.23343 13.2207 7.65503 13.0071 7.28942 12.5983C6.84222 12.0991 6.88782 11.6287 6.88382 11.4239M11.0502 8.93984L11.5998 8.38864M7.32782 12.6607L6.80542 13.1831" stroke="currentColor" stroke-width="1.2" stroke-linecap="round" stroke-linejoin="round"/>
</svg>

<svg xmlns="http://www.w3.org/2000/svg" width="20" height="20" fill="none" viewBox="0 0 20 20"><path stroke="currentColor" stroke-linecap="round" stroke-linejoin="round" stroke-width="1.2" d="M14.4 4.4a1.2 1.2 0 1 1 0 2.4 1.2 1.2 0 0 1 0-2.4"/><path stroke="currentColor" stroke-width="1.2" d="M2.619 9.315c-.803.896-.82 2.248-.083 3.2a27.2 27.2 0 0 0 4.948 4.949c.953.736 2.305.719 3.2-.083a74 74 0 0 0 6.813-6.959 1.56 1.56 0 0 0 .376-.875c.132-1.437.403-5.576-.721-6.7-1.124-1.123-5.263-.852-6.7-.72a1.56 1.56 0 0 0-.875.376A74 74 0 0 0 2.62 9.315Z"/><path stroke="currentColor" stroke-linecap="round" stroke-linejoin="round" stroke-width="1.2" d="M11.43 10.294c.018-.321.107-.909-.38-1.355a1.8 1.8 0 0 0-.638-.36c-1.006-.355-2.24.83-1.367 1.916.47.584.832.763.797 1.426-.024.465-.481.953-1.085 1.138-.524.162-1.102-.052-1.468-.46-.447-.5-.401-.97-.405-1.175M11.05 8.94l.55-.551M7.328 12.66l-.523.522"/></svg>
